!!!OTL: Ningxia youle hongtaiyang
!!!ARE: Asia, China,ÿNingxia
!!    Ningxia
!! I, 158, 2)
!!!SCT: C1824
!!!YEM: Copyright 1995, estate of Helmut Schaffrath.
**kern
*ICvox
*Ivox
*M2/4
*k[b-]
*F:
{8.cc
16ff
8dd
8cc
=1
8dd
8cc
8b-
8g
=2
8dd
4dd
8b-
=3
2cc}
=4
{8ff
4ff
8cc
=5
8dd
8cc
8b-
8g
=6
8f
4f
8c
=7
2f}
=8
{4g
8cc
8cc
=9
8dd
8cc
4b-
=10
8.g
16b-
8g
8b-
=11
2e}
=12
{8b-
4b-
8g
=13
8b-
8g
8f
8d
=14
8c
4c
8B-
=15
2c}
==
!!!AGN: Shange, Danglanglang diao
!! Han Hui
!!!ONB: ESAC (Essen Associative Code) Database: SENGANSU
!!!AMT: simple duple
!!!AIN: vox
!!!EED: Helmut Schaffrath
!!!EEV: 1.0
*-
